X: 259
T:The Rocking Horse
% Nottingham Music Database
S:Chris Dewhurst 1978, via Phil Rowe
M:6/8
K:C
"G7"E2D |"C"C2c "F"ABc|"C"GAG GFE|"F"F2A "C"GFE|"Dm"FEF "G"DED|
"C"C2c "F"ABc|"C"GAG "Am"GFE|"Dm"DEF "G"GAB|"C"c3 :|
"C"cBc |"G"d2d dcd|"C"e2e "Am"ede|"Dm"f2f "G"def|"C"g3 "C7"efg|"F"a2a fga|
"C"g2e "Am"cde|"Dm"fed cBA|"G7"G3 e2d|"C"c2c "C7"GA_B|"F"A2c FGA|
"C"GEC "D7"CB,C|"G"D3 "G7"G2F|"C"E2G CDE|"F"F2A "Dm"Ddc|"G"BAG FED|"C"C3 ||


